X:2387
T:Yn Shenn Dolphin 
C:James Gawne, Peel
C:Traditional
O:Isle of Man 
Z:A.W.Moore et.al.
N:See also KV220,221
B:Kiaull Vannin #387
M:3/4 
L:1/4 
Q:100 
K:G
AAB |c2 B/A/|ddB |A3 |FAB |ccB |ABc |d3 |
dBA |F2A |FED |E2F |GAB |F2D |ED3/2 D/|D3||

